src/12/document-search-stroke.svg

<svg xmlns="http://www.w3.org/2000/svg" width="12" height="12" focusable="false" viewBox="0 0 12 12">
  <path fill="currentColor" d="M2.00051335,1.00099924 L7.00308012,1.00099924 L7.00308012,3.00099924 C7.00308012,3.55699924 7.44730805,4.00099924 8.00359347,4.00099924 L10.0046202,4.00099924 L10.0046202,5.00099924 C10.0046202,5.27714162 10.2285927,5.50099924 10.5048769,5.50099924 C10.781161,5.50099924 11.0051335,5.27714162 11.0051335,5.00099924 L11.0051335,3.52899924 C11.0064325,3.50801931 11.0064325,3.48697918 11.0051335,3.46599924 L11.0051335,3.21099924 C11.0089127,2.93601096 10.8936519,2.67279708 10.6889713,2.48899924 L8.49884758,0.296999244 C8.31544308,0.104148736 8.05966074,-0.0031884616 7.79348567,0.000999243952 L7.53835476,0.000999243952 C7.51736513,-0.000333081317 7.49631206,-0.000333081317 7.47532242,0.000999243952 L2.00051335,0.000999243952 C1.44422793,0.000999243952 1,0.444999244 1,1.00099924 L1,11.0009992 C1,11.5569992 1.44422793,12.0009992 2.00051335,12.0009992 L6.00256677,12.0009992 C6.2788509,12.0009992 6.50282344,11.7771416 6.50282344,11.5009992 C6.50282344,11.2248569 6.2788509,11.0009992 6.00256677,11.0009992 L2.00051335,11.0009992 L2.00051335,1.00099924 Z M10.086269,6.56497024 C11.0809048,7.37669577 11.2989974,8.80933315 10.590921,9.87999924 L11.8595719,11.1479992 C12.0491553,11.3441887 12.046444,11.6560416 11.8534781,11.8489085 C11.6605122,12.0417754 11.3484992,12.0444853 11.152209,11.8549992 L9.88355806,10.5869992 C8.81234234,11.2947123 7.37896951,11.0767316 6.56682727,10.0826062 C5.75468503,9.0884808 5.82762874,7.6411902 6.73561423,6.73367059 C7.64359972,5.82615098 9.09163329,5.7532447 10.086269,6.56497024 Z M8.50385015,7.00099924 C7.67499775,7.00099924 7.00308012,7.67257212 7.00308012,8.50099924 C7.00308012,9.32942637 7.67499775,10.0009992 8.50385015,10.0009992 C9.33270255,10.0009992 10.0046202,9.32942637 10.0046202,8.50099924 C10.0046202,7.67257212 9.33270255,7.00099924 8.50385015,7.00099924 Z M9.29725724,3.00099924 L8.00359347,3.00099924 L8.00359347,1.70799924 L9.29725724,3.00099924 Z M3.00102671,9.50099924 C3.00102671,9.22485687 3.22499925,9.00099924 3.50128338,9.00099924 L4.50179674,9.00099924 C4.77808087,9.00099924 5.00205341,9.22485687 5.00205341,9.50099924 C5.00205341,9.77714162 4.77808087,10.0009992 4.50179674,10.0009992 L3.50128338,10.0009992 C3.22499925,10.0009992 3.00102671,9.77714162 3.00102671,9.50099924 Z M3.00102671,7.50099924 C3.00102671,7.22485687 3.22499925,7.00099924 3.50128338,7.00099924 L4.50179674,7.00099924 C4.77808087,7.00099924 5.00205341,7.22485687 5.00205341,7.50099924 C5.00205341,7.77714162 4.77808087,8.00099924 4.50179674,8.00099924 L3.50128338,8.00099924 C3.22499925,8.00099924 3.00102671,7.77714162 3.00102671,7.50099924 Z M3.00102671,5.50099924 C3.00102671,5.22485687 3.22499925,5.00099924 3.50128338,5.00099924 L6.50282344,5.00099924 C6.77910758,5.00099924 7.00308012,5.22485687 7.00308012,5.50099924 C7.00308012,5.77714162 6.77910758,6.00099924 6.50282344,6.00099924 L3.50128338,6.00099924 C3.22499925,6.00099924 3.00102671,5.77714162 3.00102671,5.50099924 Z"/>
</svg>

<svg xmlns="http://www.w3.org/2000/svg" width="12" height="12" focusable="false" viewBox="0 0 12 12">
  <path fill="currentColor" d="M2 1h5v2c0 .556.444 1 1 1h2v1a.5.5 0 0 0 1 0V3.528a.51.51 0 0 0 0-.063V3.21a.953.953 0 0 0-.316-.722L8.495.296A.952.952 0 0 0 7.79 0h-.255a.497.497 0 0 0-.063 0H2c-.556 0-1 .444-1 1v10c0 .556.444 1 1 1h4a.5.5 0 0 0 0-1H2V1Zm7.293 2H8V1.707L9.293 3Z"/>
  <path fill="currentColor" d="M10 8.5a1.5 1.5 0 1 1-3 0 1.5 1.5 0 0 1 3 0Zm-.121 2.086a2.5 2.5 0 1 1 .707-.707l1.268 1.268a.5.5 0 0 1-.707.707l-1.268-1.268ZM3 9.5a.5.5 0 0 1 .5-.5h1a.5.5 0 0 1 0 1h-1a.5.5 0 0 1-.5-.5Zm0-2a.5.5 0 0 1 .5-.5h1a.5.5 0 0 1 0 1h-1a.5.5 0 0 1-.5-.5Zm0-2a.5.5 0 0 1 .5-.5h3a.5.5 0 0 1 0 1h-3a.5.5 0 0 1-.5-.5Z"/>
</svg>
